**kern
*clefG2
*k[b-e-]
*M3/4
=1
8gL
8gJ
4g
8gL
8gJ
=2
4f
4f
4d
=3
2b-
4cc
=4
2b-
4g
=5
4b-
4b-
8b-L
8b-J
=6
8aL
8aJ
4a
4f
=7
8gL
8gJ
8gL
8gJ
8gL
8gJ
=8
4f
8fL
8fJ
4d
=9
4e-
4c
4f
=10
2d.
=11||
*-